Yaru++/emotes/16/face-quiet.svg

<svg height="16" width="16" xmlns="http://www.w3.org/2000/svg"><g stroke-width="1.142857"><path d="m8 0c-4.418281 0-7.99999653 3.5817221-7.99999653 8 0 4.418278 3.58171553 8 7.99999653 8s7.999997-3.581722 7.999997-8c0-4.4182779-3.581716-8-7.999997-8zm-2.2857143 4.5714286c.6377143 0 1.1782857.5405714 1.1782857 1.1782857v1.1074286c0 .6377142-.5405714 1.1428571-1.1782857 1.1428571s-1.1428571-.5051429-1.1428571-1.1428571v-1.1074286c0-.6377143.5051428-1.1782857 1.1428571-1.1782857zm4.5714283 0c.637715 0 1.142857.5405714 1.142857 1.1782857v1.1074286c0 .6377142-.505142 1.1428571-1.142857 1.1428571-.637714 0-1.1428569-.5051429-1.1428569-1.1428571v-1.1074286c0-.6377143.5051429-1.1782857 1.1428569-1.1782857z" fill="#fdc92b"/><path d="m8 0c-4.5526383.00330687-8.18477006 3.7998896-7.98660709 8.3482143.12073743-4.3256732 3.65925279-7.77122591 7.98660709-7.77678573 4.280605.00310942 7.800287 3.37523683 7.986607 7.65178573.125609-4.499927-3.484931-8.21743067-7.986607-8.2232143zm-3.4285714 6.8571429v.5714285c0 .6377143.5051428 1.1428572 1.1428571 1.1428572s1.1785714-.5051429 1.1785714-1.1428572v-.5714285c0 .6377142-.5408571 1.1428571-1.1785714 1.1428571s-1.1428571-.5051429-1.1428571-1.1428571zm4.5714285 0v.5714285c0 .6377143.5051429 1.1428572 1.1428569 1.1428572.637715 0 1.142857-.5051429 1.142857-1.1428572v-.5714285c0 .6377142-.505142 1.1428571-1.142857 1.1428571-.637714 0-1.1428569-.5051429-1.1428569-1.1428571z" fill="#fff" opacity=".3"/><path d="m5.7142857 4c-.6377143 0-1.1428571.5408571-1.1428571 1.1785714v.5714286c0-.6377143.5051428-1.1785714 1.1428571-1.1785714s1.1785714.5408571 1.1785714 1.1785714v-.5714286c0-.6377143-.5408571-1.1785714-1.1785714-1.1785714zm4.5714283 0c-.637714 0-1.1428569.5408571-1.1428569 1.1785714v.5714286c0-.6377143.5051429-1.1785714 1.1428569-1.1785714.637715 0 1.142857.5408571 1.142857 1.1785714v-.5714286c0-.6377143-.505142-1.1785714-1.142857-1.1785714zm5.700893 3.6517857c-.120738 4.3256733-3.659253 7.7712253-7.986607 7.7767853-4.2806045-.003109-7.80028699-3.375237-7.98660709-7.6517853-.12560863 4.4999273 3.48493099 8.2174303 7.98660709 8.2232143 4.552638-.0033 8.18477-3.79989 7.986607-8.3482143z" opacity=".2"/></g><path d="m9.6542969 8.6289062-1.5527344 1.6874998-1.6855469-1.5527341-1.015625 1.1035156 1.6875 1.5527345-1.5527344 1.685547 1.1035157 1.015625 1.5527343-1.6875 1.6855469 1.552734 1.0156249-1.103516-1.6874999-1.552734 1.5527339-1.6855468z" opacity=".7"/></svg>

<?xml version="1.0" encoding="UTF-8" standalone="no"?>
<svg
   xmlns:dc="http://purl.org/dc/elements/1.1/"
   xmlns:cc="http://creativecommons.org/ns#"
   xmlns:rdf="http://www.w3.org/1999/02/22-rdf-syntax-ns#"
   xmlns:svg="http://www.w3.org/2000/svg"
   xmlns="http://www.w3.org/2000/svg"
   xmlns:sodipodi="http://sodipodi.sourceforge.net/DTD/sodipodi-0.dtd"
   xmlns:inkscape="http://www.inkscape.org/namespaces/inkscape"
   width="16"
   height="16"
   version="1.1"
   id="svg4"
   sodipodi:docname="face-quiet.svg"
   inkscape:version="0.92.4 (5da689c313, 2019-01-14)">
  <metadata
     id="metadata10">
    <rdf:RDF>
      <cc:Work
         rdf:about="">
        <dc:format>image/svg+xml</dc:format>
        <dc:type
           rdf:resource="http://purl.org/dc/dcmitype/StillImage" />
        <dc:title></dc:title>
      </cc:Work>
    </rdf:RDF>
  </metadata>
  <defs
     id="defs8" />
  <sodipodi:namedview
     pagecolor="#ffffff"
     bordercolor="#666666"
     borderopacity="1"
     objecttolerance="10"
     gridtolerance="10"
     guidetolerance="10"
     inkscape:pageopacity="0"
     inkscape:pageshadow="2"
     inkscape:window-width="1920"
     inkscape:window-height="1016"
     id="namedview6"
     showgrid="false"
     inkscape:zoom="52.4375"
     inkscape:cx="8"
     inkscape:cy="8"
     inkscape:window-x="0"
     inkscape:window-y="27"
     inkscape:window-maximized="1"
     inkscape:current-layer="svg4" />
  <path
     d="M 8,0 C 3.581719,0 3.4729399e-6,3.5817221 3.4729399e-6,8 3.4729399e-6,12.418278 3.581719,16 8,16 12.418281,16 15.999997,12.418278 15.999997,8 15.999997,3.5817221 12.418281,0 8,0 Z M 5.7142857,4.5714286 C 6.352,4.5714286 6.8925714,5.112 6.8925714,5.7497143 V 6.8571429 C 6.8925714,7.4948571 6.352,8 5.7142857,8 5.0765714,8 4.5714286,7.4948571 4.5714286,6.8571429 V 5.7497143 c 0,-0.6377143 0.5051428,-1.1782857 1.1428571,-1.1782857 z m 4.5714283,0 c 0.637715,0 1.142857,0.5405714 1.142857,1.1782857 V 6.8571429 C 11.428571,7.4948571 10.923429,8 10.285714,8 9.648,8 9.1428571,7.4948571 9.1428571,6.8571429 V 5.7497143 C 9.1428571,5.112 9.648,4.5714286 10.285714,4.5714286 Z"
     id="path2"
     style="fill:#fdc92b;fill-opacity:1;stroke-width:1.14285719"
     inkscape:connector-curvature="0"
     sodipodi:nodetypes="sssssssssssssssssss" />
  <path
     style="opacity:0.3;fill:#ffffff;fill-opacity:1;stroke-width:1.14285719"
     d="M 8,0 C 3.4473617,0.00330687 -0.18477006,3.7998896 0.01339291,8.3482143 0.13413034,4.0225411 3.6726457,0.57698839 8,0.57142857 12.280605,0.57453799 15.800287,3.9466654 15.986607,8.2232143 16.112216,3.7232873 12.501676,0.00578363 8,0 Z M 4.5714286,6.8571429 v 0.5714285 c 0,0.6377143 0.5051428,1.1428572 1.1428571,1.1428572 0.6377143,0 1.1785714,-0.5051429 1.1785714,-1.1428572 V 6.8571429 C 6.8928571,7.4948571 6.352,8 5.7142857,8 5.0765714,8 4.5714286,7.4948571 4.5714286,6.8571429 Z m 4.5714285,0 v 0.5714285 c 0,0.6377143 0.5051429,1.1428572 1.1428569,1.1428572 0.637715,0 1.142857,-0.5051429 1.142857,-1.1428572 V 6.8571429 C 11.428571,7.4948571 10.923429,8 10.285714,8 9.648,8 9.1428571,7.4948571 9.1428571,6.8571429 Z"
     id="path829"
     inkscape:connector-curvature="0"
     sodipodi:nodetypes="ccccccssscsccssscsc" />
  <path
     style="opacity:0.2;fill:#000000;fill-opacity:1;stroke-width:1.14285719"
     d="M 5.7142857,4 C 5.0765714,4 4.5714286,4.5408571 4.5714286,5.1785714 V 5.75 c 0,-0.6377143 0.5051428,-1.1785714 1.1428571,-1.1785714 0.6377143,0 1.1785714,0.5408571 1.1785714,1.1785714 V 5.1785714 C 6.8928571,4.5408571 6.352,4 5.7142857,4 Z M 10.285714,4 C 9.648,4 9.1428571,4.5408571 9.1428571,5.1785714 V 5.75 c 0,-0.6377143 0.5051429,-1.1785714 1.1428569,-1.1785714 0.637715,0 1.142857,0.5408571 1.142857,1.1785714 V 5.1785714 C 11.428571,4.5408571 10.923429,4 10.285714,4 Z m 5.700893,3.6517857 C 15.865869,11.977459 12.327354,15.423011 8,15.428571 3.7193955,15.425462 0.19971301,12.053334 0.01339291,7.7767857 -0.11221572,12.276713 3.4983239,15.994216 8,16 c 4.552638,-0.0033 8.18477,-3.79989 7.986607,-8.3482143 z"
     id="path834"
     inkscape:connector-curvature="0"
     sodipodi:nodetypes="sscscsssscscssccccc" />
  <path
     style="color:#000000;font-style:normal;font-variant:normal;font-weight:normal;font-stretch:normal;font-size:medium;line-height:normal;font-family:sans-serif;font-variant-ligatures:normal;font-variant-position:normal;font-variant-caps:normal;font-variant-numeric:normal;font-variant-alternates:normal;font-feature-settings:normal;text-indent:0;text-align:start;text-decoration:none;text-decoration-line:none;text-decoration-style:solid;text-decoration-color:#000000;letter-spacing:normal;word-spacing:normal;text-transform:none;writing-mode:lr-tb;direction:ltr;text-orientation:mixed;dominant-baseline:auto;baseline-shift:baseline;text-anchor:start;white-space:normal;shape-padding:0;clip-rule:nonzero;display:inline;overflow:visible;visibility:visible;opacity:0.7;isolation:auto;mix-blend-mode:normal;color-interpolation:sRGB;color-interpolation-filters:linearRGB;solid-color:#000000;solid-opacity:1;vector-effect:none;fill:#000000;fill-opacity:1;fill-rule:nonzero;stroke:none;stroke-width:1.5;stroke-linecap:butt;stroke-linejoin:miter;stroke-miterlimit:4;stroke-dasharray:none;stroke-dashoffset:0;stroke-opacity:1;color-rendering:auto;image-rendering:auto;shape-rendering:auto;text-rendering:auto;enable-background:accumulate"
     d="M 9.6542969 8.6289062 L 8.1015625 10.316406 L 6.4160156 8.7636719 L 5.4003906 9.8671875 L 7.0878906 11.419922 L 5.5351562 13.105469 L 6.6386719 14.121094 L 8.1914062 12.433594 L 9.8769531 13.986328 L 10.892578 12.882812 L 9.2050781 11.330078 L 10.757812 9.6445312 L 9.6542969 8.6289062 z "
     id="path814" />
</svg>
